build/img/sprite/icon-link.svg

<svg width="20" height="20" viewBox="0 0 20 20" fill="none" xmlns="http://www.w3.org/2000/svg">
<g clip-path="url(#clip0)">
<path d="M12.2015 7.79552C11.9646 7.5572 11.7019 7.34595 11.4183 7.16563C10.6672 6.68467 9.79398 6.42909 8.90207 6.42909C7.66413 6.42678 6.47649 6.91865 5.60267 7.79552L1.36343 12.0381C0.491085 12.9121 0.000782076 14.0963 9.66007e-07 15.3312C-0.00163936 17.9081 2.08595 19.9983 4.66283 20C5.89886 20.0043 7.08541 19.5148 7.95892 18.6402L11.4583 15.1409C11.5219 15.0778 11.5574 14.9918 11.5569 14.9023C11.5558 14.7182 11.4057 14.5699 11.2217 14.571H11.0884C10.3572 14.5735 9.63265 14.4331 8.95542 14.1577C8.83064 14.1064 8.68723 14.1353 8.59217 14.231L6.07594 16.7506C5.2946 17.5319 4.02779 17.5319 3.24645 16.7506C2.4651 15.9692 2.4651 14.7024 3.24645 13.9211L7.50236 9.66851C8.28308 8.88876 9.54782 8.88876 10.3285 9.66851C10.8547 10.1637 11.6754 10.1637 12.2015 9.66851C12.4279 9.44195 12.5651 9.14145 12.5881 8.82198C12.6125 8.44021 12.4717 8.06633 12.2015 7.79552Z" fill="currentColor"/>
<path d="M18.6331 1.36666C16.8109 -0.455553 13.8565 -0.455553 12.0343 1.36666L8.53825 4.85935C8.44225 4.95582 8.41456 5.10091 8.46826 5.22597C8.52134 5.35137 8.64538 5.43187 8.78153 5.42925H8.90482C9.63508 5.42792 10.3585 5.56942 11.0344 5.84585C11.1592 5.89721 11.3026 5.86823 11.3977 5.77255L13.9072 3.26632C14.6886 2.48497 15.9554 2.48497 16.7367 3.26632C17.5181 4.04766 17.5181 5.31447 16.7367 6.09581L13.6106 9.21857L13.5839 9.24856L12.4908 10.335C11.7101 11.1148 10.4454 11.1148 9.66465 10.335C9.13849 9.83986 8.31778 9.83986 7.79167 10.335C7.56385 10.5633 7.4265 10.8664 7.40506 11.1882C7.38068 11.57 7.52148 11.9439 7.79167 12.2147C8.17742 12.6021 8.62874 12.918 9.12475 13.1479C9.19473 13.1812 9.26472 13.2079 9.33471 13.2378C9.4047 13.2678 9.478 13.2912 9.54799 13.3178C9.61798 13.3445 9.69128 13.3678 9.76127 13.3878L9.95792 13.4411C10.0912 13.4744 10.2245 13.5011 10.3612 13.5244C10.5257 13.5489 10.6915 13.5645 10.8578 13.5711H11.091H11.111L11.311 13.5478C11.3843 13.5445 11.461 13.5278 11.5476 13.5278H11.6609L11.8909 13.4945L11.9976 13.4745L12.1908 13.4345H12.2275C13.0462 13.2289 13.7937 12.805 14.3904 12.208L18.633 7.96547C20.4553 6.14326 20.4553 3.18887 18.6331 1.36666Z" fill="currentColor"/>
</g>
<defs>
<clipPath id="clip0">
<rect width="20" height="20" fill="white"/>
</clipPath>
</defs>
</svg>

<svg width="20" height="20" fill="none" xmlns="http://www.w3.org/2000/svg"><g clip-path="url(#clip0)" fill="currentColor"><path d="M12.201 7.796a4.666 4.666 0 00-6.599 0l-4.239 4.242A4.666 4.666 0 004.663 20a4.636 4.636 0 003.296-1.36l3.5-3.5a.333.333 0 00-.237-.569h-.134a5.611 5.611 0 01-2.133-.413.333.333 0 00-.363.073l-2.516 2.52a2 2 0 01-2.83-2.83L7.502 9.67a2 2 0 012.827 0 1.366 1.366 0 001.872 0c.227-.227.364-.528.387-.847a1.333 1.333 0 00-.386-1.026z"/><path d="M18.633 1.367a4.666 4.666 0 00-6.599 0L8.538 4.859a.333.333 0 00.244.57h.123c.73-.001 1.454.14 2.13.417a.333.333 0 00.363-.073l2.51-2.507a2 2 0 112.829 2.83L13.61 9.219l-.027.03-1.093 1.086a2 2 0 01-2.826 0 1.367 1.367 0 00-1.873 0 1.333 1.333 0 000 1.88c.385.387.837.703 1.333.933.07.033.14.06.21.09.07.03.143.053.213.08.07.027.143.05.213.07l.197.053c.133.033.267.06.403.083.165.025.33.04.497.047h.253l.2-.023c.073-.004.15-.02.237-.02h.113l.23-.034.107-.02.193-.04h.036a4.664 4.664 0 002.163-1.226l4.243-4.243a4.666 4.666 0 000-6.598z"/></g><defs><clipPath id="clip0"><path fill="#fff" d="M0 0h20v20H0z"/></clipPath></defs></svg>
